X: 37884
T: Soup Dragon, The
R: jig
M: 6/8
K: Eminor
uA|:BEE EDE|ABB BAG|AAA A2G|ABB AGA|
BEE EDE|ABB BAG|AGAB2 A|GED E3 A:|
Bdd dBG|FGA BAG|AAA A2 G|ABB AGA|
Bdd dBG|FGA BAG|AAAB2A|GED E2 A||
Bdd dBG|FGA BAG|AAA A2 G|ABB AGA|
BEE EDE|ABB GAB|AGAB2A|GED E3||

